X:1
T:James Gibb editions
T:J'attends secours - Sermisy
T:#
%%score [ 1 2 3 4 ]
L:1/8
Q:1/4=130
M:4/4
K:F
V:1 treble nm="Soprano" snm="S"
V:2 treble nm="Alto" snm="A"
V:3 treble-8 nm="Tenor" snm="T"
V:4 bass nm="Bass" snm="B"
V:1
"^J'attends secours""^Clément Marot\n(1496-1544)""^Claudin de Sermisy\n(1490-1562)" (F6 G2) | %1
w: J'at\- *|
w: Mon *|
w: Si *|
 A4 (B2 A2- | A2 GF) E4 | z2 F2 G4- | G2 F2 B4 | A4 (G2 A2- |[M:4/4] AG F4 E2) | F8 | (F6 G2) | %9
w: tends se\- *|* * * cours|de ma|* seu- le|pen- sé\- *||e:|J'at\- *|
w: al- li\- *|* * * an-|ce~~est fort|* bien com-|men- cé\- *||e,|Mais *|
w: j'ai re\- *|* * * fus,|vi- enne|* Mort in-|sen sé\- *||e:|A *|
 A4 B4 | c4 z2 B2 | A2 A2 G2 G2 | A8 | G8 | G4 (GFGA) | B4 z2 A2 | G2 A2 G2 F2 | E8 | (F6 G2) | %19
w: tends le|jour, que|l'on m'é- con- dui-|ra,|Ou|que du * * *|tout la|bel- le me di-|ra.|"A\- *|
w: je ne|sais com-|ment il en i-|ra:|Car,|s'el- le * * *|veut, ma|vi- e pé- ri-|ra,|Quoi\- *|
w: son plai-|sir de|mon coeur jou- ir-|a.|Si|j'ai mer\- * * *|ci, a-|donc s'é- jou- ir-|a|Ce\- *|
 A4 (B2 A2- | A2 GF) E4 | z2 F2 G4- | G2 F2 B4 | A4 (G2 A2- | AG F4 E2) | F8 |] %26
w: mi, t'a\- *|* * * mour|se- ra|* ré- com-|pen- sé\- *||e."|
w: qu'en a\- *|* * * mour|s'at- tend|* d'êt- re|a- van\- *||cé.|
w: lui qui *|* * * point|n'a sa|* Dame of-|fen- sé\- *||e.|
V:2
 C8 | A,4 F,4- | F,4 G,4 | z2 D2 D4 | (_E2 C2) F4- | F2 D2 (_E2 C2- |[M:4/4] CA, B,2 C4) | A,8 | %8
w: J'at-|tends se\-|* cours|de ma|seu\- * le|* pen- sé\- *||e:|
w: Mon|al- li\-|* an-|ce~~est fort|bien * com\-|* men- cé\- *||e,|
w: Si|j'ai re\-|* fus,|vi- enne|Mort * in\-|* sen- sé\- *||e:|
 (D6 E2) | F4 G4 | E2 C2 F4 | F2 F2 (D2 E2) | F8 | E8 | E4 E4 | D4 z2 F2 | D2 D2 _E2 C2 | C8 | C8 | %19
w: J'at\- *|tends le|jour, que l'on|m'é- con- dui\- *|ra,|Ou|que du|tout la|bel- le me di-|ra,|"A-|
w: Mais *|je ne|sais com- ment|il en i\- *|ra:|Car,|s'el- le|veut, ma|vi- e pé- ri|ra,|Quoi-|
w: A *|son plai-|sir de mon|coeur jou- ir\- *|a.|Si|j'ai mer-|ci, a-|donc s'é- jou- ir-|a|Ce-|
 A,4 F,4- | F,4 G,4 | z2 D2 D4 | (_E2 C2) F4- | F2 D2 (_E2 C2- | CA, B,2 C4) | A,8 |] %26
w: mi, t'a\-|* mour|se- ra|ré\- * com\-|* pen- sé\- *||e."|
w: qu'en a\-|* mour|s'at- tend|d'êt\- * re|* a- van\- *||cé.|
w: lui qui|* point|n'a sa|Dame * of\-|* fen- sé\- *||e|
V:3
 (F4 G2 A2) | c4 (d2 c2- | cBB) c4 z | z2 A2 B4- | B2 A2 d4 | (c2 A2 B2 A2) | %6
w: J'at\- * *|tends se\- *|* * * cours|de ma|* seu- le|pen\- * * *|
w: Mon * *|al- li\- *|* * * an-|ce~~est fort|* bien com-|men\- * * *|
w: Si * *|j'ai re\- *|* * * fus,|vi- enne|* Mort in-|sen\- * * *|
[M:4/4][K:treble-8] (F4 G4) | F8 | A8 | d4 d4 | c4 z2 d2 | c2 c2 B2 B2 | A8 | c8 | c4 c4 | %15
w: sé\- *|e:|J'at-|tends le|jour, que|l'on m'é- con- dui-|ra,|Ou|que du|
w: cé\- *|e,|Mais|je ne|sais com-|ment il en i-|ra:|Car,|s'el- le|
w: sé\- *|e:|A|son plai-|sir de|mon coeur jou- ir-|a.|Si|j'ai mer-|
 B4 z2 c2 | B2 A2 B2 A2 | G8 | (A6 B2) | c4 (d2 c2- | cBBA) c4 | z2 A2 B4- | B2 A2 d4 | %23
w: tout la|bel- le me di-|ra,|"A\- *|mi, t'a\- *|* * * * mour|se- ra|* ré- com-|
w: veut, ma|vi- e pé- ri-|ra,|Quoi\- *|qu'en a\- *|* * * * mour|s'at- tend|* d'êt- re|
w: ci, a-|donc s'é- jou- ir-|a|Ce\- *|lui qui *|* * * * point|n'a sa|* Dame of|
 (c2 A2 B2 A2) | (F4 G4) | F8 |] %26
w: pen\- * * *|sé\- *|e."|
w: a\- * * *|van\- *|cé.|
w: fen\- * * *|sé\- *|e.|
V:4
 F,8 | F,4 D,4- | D,4 C,4 | z2 D,2 (G,3 F, | _E,2) (F,2 B,,C,D,)=E, | (F,4 _E,2 F,2) | %6
w: J'at-|tends se\-|* cours|de ma *|* seu\- * * * le|pen\- * *|
w: Mon|al- li\-|* an-|ce~~est fort *|* bien * * * com-|men\- * *|
w: Si|j'~ai re\-|* fus,|vi- enne *|* Mort * * * in-|sen\- * *|
[M:4/4] (D,4 C,4) | F,8 | D,8 | D,4 G,4 | C,2 F,4 B,,2 | F,2 F,2 G,4 | F,8 | C,8 | C,4 C,4 | %15
w: sé\- *|e:|J'at-|tends le|jour, que l'on|m'é- con- dui-|ra,|Ou|que du|
w: cé\- *|e,|Mais|je ne|sais com- ment|il en i-|ra:|Car,|s'el- le|
w: sé\- *|e:|A|son plai-|sir de mon|coeur jou- ir-|a.|Si|j'ai mer-|
 G,4 z2 F,2 | G,2 F,2 _E,2 F,2 | C,8 | F,8 | F,4 D,4- | D,4 C,4 | z2 D,2 (G,3 F, | %22
w: tout la|bel- le me di-|ra,|"A-|mi, t'a\-|* mour|se- ra *|
w: veut, ma|vi- e pé- ri-|ra,|Quoi-|qu'en a\-|* mour|s'at- tend *|
w: ci, a-|donc s'é- jou- ir-|a|Ce-|lui qui|* point|n'a sa *|
 _E,2) F,2 (B,,C,D,=E,) | (F,4 _E,2 F,2) | (D,4 C,4) | F,8 |] %26
w: * ré- com\- * * *|pen\- * *|sé\- *|e."|
w: * d'êt- re * * *|a\- * *|van\- *|cé.|
w: * Dame of\- * * *|fen\- * *|sé\- *|e.|

